X:1
T:Title
L:1/8
Q:1/4=80
M:2/4
K:D
V:1 treble nm="Church Organ, Staff"
V:1
 A>A- A z/ F/- | FA/B/- B z/ c/- | cB/A/- A2- | A>F- F z/ A/- | A>B- B z/ A/- | AB/d/- d z/ c/- | %6
w: By~Madam~Sainton\-Dolby * * *||||||
 cB/A/- A2- | A>A- A z/ A/- | A>A- A z/ F/- | FA/B/- B z/ c/- | cB/A/- A2- | A>d- d z/ d/- | %12
w: ||||||
 d>c- c z/ B/- | BA/B/- B z/ ^G/- | G^G/c/- c2- | c>A- A z/ d/- | %16
w: ||||
[M:4/4] d/cB/- B/AB/- B/AG/- G/FE/- | E/DC/- C z/ A/- AA/F/- F z/ d/- | %18
w: ||
 d/cB/- B/AB/- B/AG/- G/FE/- | E/DC/- C z/ A/- AA/F/- F z/ D/- | D/EF/- F z/ F/- F/GA/- A z/ B/- | %21
w: |||
 B/cd/- d z/ e/- e/ef/- f z/ d/- | d/cB/- B/AB/- B/AG/- G/FE/- | E/DC/- C z/ A/- AA/F/- F z/ d/- | %24
w: |||
 d/cB/- B/AB/- B/AG/- G/FE/- | ED/C/- C z/ c/- cc/d/- d z |] %26
w: ||

